img/prop-icon9.svg

<svg width="30" height="30" viewBox="0 0 30 30" fill="none" xmlns="http://www.w3.org/2000/svg">
<path d="M15 1.40625C7.5 1.40625 1.40625 7.5 1.40625 15C1.40625 22.5 7.5 28.5938 15 28.5938C22.5 28.5938 28.5938 22.5 28.5938 15C28.5938 7.5 22.5 1.40625 15 1.40625ZM15 27.1875C8.27344 27.1875 2.8125 21.7266 2.8125 15C2.8125 8.27344 8.27344 2.8125 15 2.8125C21.7266 2.8125 27.1875 8.27344 27.1875 15C27.1875 21.7266 21.7266 27.1875 15 27.1875Z" fill="#E0E3E4"/>
<path d="M15.4688 9.60938H12.6562C12.2578 9.60938 11.9531 9.91406 11.9531 10.3125V20.8594C11.9531 21.2578 12.2578 21.5625 12.6562 21.5625C13.0547 21.5625 13.3594 21.2578 13.3594 20.8594V17.5781H15.4688C17.6719 17.5781 19.4531 15.7969 19.4531 13.5938C19.4531 11.3906 17.6719 9.60938 15.4688 9.60938ZM15.4688 16.1719H13.3594V11.0156H15.4688C16.8984 11.0156 18.0469 12.1641 18.0469 13.5938C18.0469 15.0234 16.8984 16.1719 15.4688 16.1719Z" fill="#E0E3E4"/>
</svg>

<svg width="30" height="30" fill="none" xmlns="http://www.w3.org/2000/svg"><path d="M15 1.406C7.5 1.406 1.406 7.5 1.406 15 1.406 22.5 7.5 28.594 15 28.594c7.5 0 13.594-6.094 13.594-13.594C28.594 7.5 22.5 1.406 15 1.406zm0 25.782C8.273 27.188 2.812 21.727 2.812 15S8.274 2.812 15 2.812 27.188 8.274 27.188 15 21.727 27.188 15 27.188z" fill="#E0E3E4"/><path d="M15.469 9.61h-2.813a.69.69 0 00-.703.703v10.546a.69.69 0 00.703.703.69.69 0 00.703-.703v-3.28h2.11a3.98 3.98 0 003.984-3.985 3.981 3.981 0 00-3.984-3.985zm0 6.562h-2.11v-5.156h2.11a2.57 2.57 0 012.578 2.578 2.57 2.57 0 01-2.578 2.578z" fill="#E0E3E4"/></svg>
